X:2
T:Early Autumn
C:Ralph Burns & Woody Herman
L:1/8
M:C
I:linebreak $
K:D treble
"D" z4"Eb7" A^AB^B S|:"D" cAFD c4 ||[K:C]"Abø" z ded"Db7" _d2 c2 |"C" BGEC B4 ||$
[K:Bb]"Gbø" z cdc"B7" =B2 _B2 |"Bb" AFDB, A4 ||[K:D]"Eø" z _B=c_B"Eb7" A2 =F2 Ox/||1$
"F#m" E2 E2-"G" E4- |"Em" E4"Eb7" A^AB^B :|2"D" E2 E2-"Em" E4 |"F#m" E4"G" z A,B,C ||$
"Em" D3 B,"Go" F F3 |"Bm" z CED"Fo" c c3 |"Em" B2 AG"Eb7" FEFA |"Do" E4"D" z A,B,C ||$
[K:C]"Dm" D3 C"G7" E2 ^CD |"C" ^D2 E2 G2 B2 |"F7" dd- d4 c2 ||[K:E]"E" d4"D7" "_D.S. al Coda" e4 ||$
[K:D]Ox/"D" E2 E2-"Em" E4 |"C7" _B2 _B2-"B7" B2 A2 |"D" D8 |]

